X:0949
T:Miss Brown's Reel.
M:C
L:1/8
Q:1/2=104
I: :: :|
Z:Jack Campin * www.campin.me.uk * 2009
K:G
c|BGGA FGAB|BGGA gdcB|caBg AGFD|EcAF G2 G:|
d|gdgb fgaf|gabg afdf|gdbd fdad|fgaf g2 g2|
  dgbd cfgc|BdgB DAcA|GBgB cAec|EcAF G2 G|]
<end>
<start>
